X:1
T:Acre of land
T:My Father Had an Acre of Land
M:6/8
L:1/8
K:F
C|A2A A2A|FFF F3|B3B2B|(B2G) G2G|A2A c2F|BBB ddd|ccc ccE|(G2F) F2|]
w:My fa-ther had an ac-re of land Heigh-ho, sing i_vy My fa-ther had an ac-re of land With a bunch of green hol-ly and i_vy